static/images/icons/research.svg

<svg width="650" height="650" fill="none" xmlns="http://www.w3.org/2000/svg"><path d="M0 325C0 81.25 81.25 0 325 0s325 81.25 325 325-81.25 325-325 325S0 568.75 0 325z" fill="#266DD3"/><path d="M453.465 449.637c-34.349-53.724-81.766-102.05-84.23-168.637h-29.568c2.537 76.443 51.509 125.239 87.31 181.221 2.098 4.43-.997 9.446-5.529 9.446h-18.539L333.477 369h-51.626c12.804-24.42 27.133-50.072 28.394-88h-29.48c-2.478 66.631-50.174 115.339-84.23 168.637-2.42 5.09-3.535 10.37-3.535 15.503 0 18.817 15.004 35.86 35.537 35.86h192.911C441.981 501 457 483.957 457 465.125c0-5.133-1.115-10.398-3.535-15.488zm-69.798-227.304c0 16.207-13.142 29.334-29.334 29.334S325 238.54 325 222.333C325 206.127 338.141 193 354.333 193s29.334 13.127 29.334 29.333zm-73.334-22c0 12.159-9.856 22-22 22s-22-9.841-22-22c0-12.158 9.856-22 22-22s22 9.842 22 22zm0 51.334c0 8.096-6.556 14.666-14.666 14.666-8.111 0-14.667-6.57-14.667-14.666S287.556 237 295.667 237c8.11 0 14.666 6.571 14.666 14.667zm44-88c0 8.096-6.556 14.666-14.666 14.666-8.111 0-14.667-6.57-14.667-14.666S331.556 149 339.667 149c8.11 0 14.666 6.571 14.666 14.667z" fill="#fff"/></svg>

<svg width="650" height="650" viewBox="0 0 650 650" fill="none" xmlns="http://www.w3.org/2000/svg">
<path d="M0 325C0 81.25 81.25 0 325 0C568.75 0 650 81.25 650 325C650 568.75 568.75 650 325 650C81.25 650 0 568.75 0 325Z" fill="#266DD3"/>
<path d="M453.465 449.637C419.116 395.913 371.699 347.587 369.235 281H339.667C342.204 357.443 391.176 406.239 426.977 462.221C429.075 466.651 425.98 471.667 421.448 471.667H402.909L333.477 369H281.851C294.655 344.58 308.984 318.928 310.245 281H280.765C278.287 347.631 230.591 396.339 196.535 449.637C194.115 454.727 193 460.007 193 465.14C193 483.957 208.004 501 228.537 501H421.448C441.981 501 457 483.957 457 465.125C457 459.992 455.885 454.727 453.465 449.637V449.637ZM383.667 222.333C383.667 238.54 370.525 251.667 354.333 251.667C338.141 251.667 325 238.54 325 222.333C325 206.127 338.141 193 354.333 193C370.525 193 383.667 206.127 383.667 222.333ZM310.333 200.333C310.333 212.492 300.477 222.333 288.333 222.333C276.189 222.333 266.333 212.492 266.333 200.333C266.333 188.175 276.189 178.333 288.333 178.333C300.477 178.333 310.333 188.175 310.333 200.333ZM310.333 251.667C310.333 259.763 303.777 266.333 295.667 266.333C287.556 266.333 281 259.763 281 251.667C281 243.571 287.556 237 295.667 237C303.777 237 310.333 243.571 310.333 251.667ZM354.333 163.667C354.333 171.763 347.777 178.333 339.667 178.333C331.556 178.333 325 171.763 325 163.667C325 155.571 331.556 149 339.667 149C347.777 149 354.333 155.571 354.333 163.667Z" fill="white"/>
</svg>
